!!!COM: Chopin, Frederic
!!!CDT: 1810///-1849///
!!!OTL: Etude in G-flat Major, Op. 10, No. 5
!!!OPS: Op. 10
!!!ONM: No. 5
!!!OMD: Vivace
!!!ODT: 1830/11//
!!!PPP: Leipzig, Paris and London
!!!ODE: Franz Liszt
!!!PDT: 1833///
!!!AIN: piano
**kern	**kern	**dynam
*staff2	*staff1	*staff1/2
*Ipiano	*Ipiano	*Ipiano
*clefF4	*clefG2	*clefG2
*k[b-e-a-d-g-c-]	*k[b-e-a-d-g-c-]	*k[b-e-a-d-g-c-]
*M2/4	*M2/4	*M2/4
*MM116	*MM116	*MM116
=1-	=1-	=1-
8G-'\ 8B-'\ 8d-'\ 8g-'\L	(24gg-\LL	f
.	24bb-\	.
.	24gg-\JJ	.
8G-'\ 8c-'\ 8e-'\ 8g-'\	24gg-\LL	.
.	24ee-\	.
.	24gg-\JJ	.
8G-'\ 8B-'\ 8d-'\ 8g-'\J	24dd-\LL	.
.	24gg-\	.
.	24b-\JJ	.
8r	24dd-\LL	.
.	24g-\	.
.	24b-\JJ	.
=2	=2	=2
8GG-'/ 8G-'/	24gg-\LL	p
.	24bb-\	.
.	24dd-\JJ	.
8c-'\ 8e-'\ 8g-'\L	24gg-\LL	.
.	24ee-\	.
.	24gg-\JJ	.
8B-'\ 8d-'\ 8g-'\J	24dd-\LL	.
.	24gg-\	.
.	24b-\JJ	.
8r	24dd-\LL	.
.	24g-\	.
.	24b-\JJ)	.
=3	=3	=3
8DD-'/ 8D-'/	24d-/LL	.
.	24dd-/	.
.	24a-/JJ	.
8A-'\ 8d-'\ 8f'\L	24dd-\LL	.
.	24a-\	.
.	24aa-\JJ	.
8A-'\ 8c-'\ 8e-'\J	24a-\LL	.
.	24aa-\	.
.	24ee-\JJ	.
8AA-'/	24aa-\LL	.
.	24ee-\	.
.	24eee-\JJ	.
=4	=4	=4
*^	*	*
8r	4.D-\	24ee-\LL	<
.	.	24eee-\	.
.	.	24aa-\JJ	.
8A-'^/ 8c-'^/ 8e-'^/L	.	24ee-\LL	.
.	.	24a-\	.
.	.	24aa-\JJ	.
8A-'/ 8c-'/ 8d-'/J	.	24a-\LL	.
.	.	24aa-\	.
.	.	24ee-\JJ	.
8r	8r	24aa-\LL	.
.	.	24dd-\	.
.	.	24ddd-\JJ	.
*v	*v	*	*
=5	=5	=5
8G-'\ 8B-'\ 8d-'\ 8g-'\L	24gg-\LL	f
.	24bb-\	.
.	24dd-\JJ	.
8G-'\ 8c-'\ 8e-'\ 8g-'\	24gg-\LL	.
.	24ee-\	.
.	24gg-\JJ	.
8G-'\ 8B-'\ 8d-'\ 8g-'\J	24dd-\LL	.
.	24gg-\	.
.	24b-\JJ	.
8r	24ddd-\LL	.
.	24gg-\	.
.	24bb-\JJ	.
=6	=6	=6
8GG-'/ 8G-'/	24gg-\LL	p
.	24bb-\	.
.	24dd-\JJ	.
8c-'\ 8e-'\ 8g-'\L	24gg-\LL	.
.	24ee-\	.
.	24gg-\JJ	.
8B-'\ 8d-'\ 8g-'\J	24dd-\LL	.
.	24gg-\	.
.	24b-\JJ	.
8r	24dd-\LL	.
.	24g-\	.
.	24b-\JJ	.
=7	=7	=7
8C-'/	24e-\LL	<
.	24ee-\	.
.	24a-\JJ	.
4A-^\ 4e-^\	24ee-\LL	.
.	24a-\	.
.	24aa-\JJ	.
.	24ee-\LL	.
.	24aa-\	.
.	24ee-\JJ	.
(8C-/	24ee-\LL	.
.	24a-\	.
.	24aa-\JJ	.
=8	=8	=8
8BB-'\) 8F'\ 8dn'\	24b-\LL	>
.	24bb-\	.
.	24b-\JJ	.
*clefG2	*	*
8B-'/ 8f'/ 8ddn'/	24bb-\LL	.
.	24b-\	.
.	24bb-\JJ	.
4r	24b-\LL	.
.	24bb-\	.
.	24b-\JJ	.
.	24bb-\LL	pp
.	24b-\	.
.	24bb-\JJ	.
*clefF4	*	*
=9	=9	=9
8G-'\ 8B-'\ 8d-'\ 8g-'\L	24gg-\LL	f
.	24bb-\	.
.	24dd-\JJ	.
8G-'\ 8c-'\ 8e-'\ 8g-'\	24gg-\LL	.
.	24ee-\	.
.	24gg-\JJ	.
8G-'\ 8B-'\ 8d-'\ 8g-'\J	24dd-\LL	.
.	24gg-\	.
.	24b-\JJ	.
8r	24dd-\LL	.
.	24g-\	.
.	24b-\JJ	.
=10	=10	=10
8GG-/ 8G-/	24gg-\LL	p
.	24bb-\	.
.	24dd-\JJ	.
8c-'\ 8e-'\ 8g-'\L	24gg-\LL	.
.	24ee-\	.
.	24gg-\JJ	.
8B-'\ 8d-'\ 8g-'\J	24dd-\LL	.
.	24gg-\	.
.	24b-\JJ	.
8r	24dd-\LL	.
.	24g-\	.
.	24b-\JJ	.
=11	=11	=11
8DD-/ 8D-/	24d-/LL	.
.	24dd-/	.
.	24a-/JJ	.
8A-'\ 8d-'\ 8f'\L	24dd-\LL	.
.	24a-\	.
.	24aa-\JJ	.
8A-'\ 8c-'\ 8e-'\J	24a-\LL	.
.	24aa-\	.
.	24ee-\JJ	<
8AA-'/	24aa-\LL	.
.	24ee-\	.
.	24eee-\JJ	.
=12	=12	=12
*^	*	*
8r	4.D-\	24ee-\LL	.
.	.	24eee-\	.
.	.	24aa-\JJ	.
8A-'^/ 8c-'^/ 8e-'^/L	.	24ee-\LL	.
.	.	24a-\	.
.	.	24aa-\JJ	.
8A-'/ 8c-'/ 8d-'/J	.	24a-\LL	.
.	.	24aa-\	.
.	.	24ee-\JJ	.
8r	8r	24aa-\LL	.
.	.	24dd-\	.
.	.	24ddd-\JJ	.
*v	*v	*	*
=13	=13	=13
8G-'\ 8B-'\ 8d-'\ 8g-'\L	24gg-\LL	f
.	24bb-\	.
.	24dd-\JJ	.
8G-'\ 8c-'\ 8e-'\ 8g-'\	24gg-\LL	.
.	24ee-\	.
.	24gg-\JJ	.
8G-'\ 8B-'\ 8d-'\ 8g-'\J	24dd-\LL	.
.	24gg-\	.
.	24b-\JJ	.
8r	24dd-\LL	.
.	24g-\	.
.	24b-\JJ	.
=14	=14	=14
8GG-'/ 8G-'/	24gg-\LL	p
.	24bb-\	.
.	24dd-\JJ	.
8c-'\ 8e-'\ 8g-'\L	24gg-\LL	.
.	24ee-\	.
.	24gg-\JJ	.
8B-'\ 8d-'\ 8g-'\J	24dd-\LL	.
.	24gg-\	.
.	24b-\JJ	.
8r	24dd-\LL	.
.	24g-\	.
.	24b-\JJ	.
=15	=15	=15
8Cn'/	24e-\LL	.
.	24ee-\	.
.	24a-\JJ	.
4A-^\ 4g-^\	24ee-\LL	.
.	24a-\	.
.	24aa-\JJ	<
.	24ee-\LL	.
.	24aa-\	.
.	24ee-\JJ	.
8AA-'/	24eee-\LL	.
.	24aa-\	.
.	24eee-\JJ	.
=16	=16	=16
8D-'\L	24ee-\LL	.
.	24eee-\	.
.	24aa-\JJ	.
8A-'\ 8f'\J	24eee-\LL	.
.	24dd-\	.
.	24ddd-\JJ	.
4r	24aa-\LL	.
.	24ddd-\	.
.	24aa-\JJ	.
.	24aa-\LL	.
.	24dd-\	.
.	24ddd-\JJ	.
*clefG2	*	*
=17	=17	=17
8cn/ 8g-/ [8a-/L	24aa-\LL	p
.	24bb-\	.
.	24aa-\JJ	.
8A-/ 8g-/ 8a-/J]	24ee-\LL	.
.	24eee-\	.
.	24ee-\JJ	.
8d-^/ 8f^/ (8b-^/L	24dd-\LL	.
.	24ee-\	.
.	24dd-\JJ	.
8A-/ 8f/ 8a-/J)	24a-\LL	.
.	24aa-\	.
.	24a-\JJ	.
=18	=18	=18
8cn/ 8g-/ (8b-/L	24aa-\LL	.
.	24bb-\	.
.	24aa-\JJ	.
8A-/ 8g-/ 8a-/J)	24ee-\LL	.
.	24eee-\	.
.	24ee-\JJ	.
8d-/ (8f/L	24dd-\LL	.
.	24ee-\	.
.	24dd-\J	.
8A-/J)	[8a-^\J	.
*clefF4	*	*
=19	=19	=19
8Cn'/	24a-\LL]	.
.	24ee-\	.
.	24aa-\JJ	.
8A-'\ 8e-'\ 8g-'\L	24bb-\LL	.
.	24aa-\	.
.	24ee-\JJ	.
8A-'\ 8d-'\ 8f'\J	24dd-\LL	.
.	24aa-\	.
.	24ddd-\JJ	<
8D-'\	24eee-\LL	.
.	24ddd-\	.
.	24bb-\JJ	.
=20	=20	=20
8AA-'\L	24a-\LL	.
.	24ee-\	.
.	24aa-\JJ	.
8A-'\ 8cn'\ 8g-'\J	24bb-\LL	.
.	24aa-\	.
.	24ee-\JJ	.
8DD-'/L	24dd-\LL	.
.	24aa-\	.
.	24ddd-\JJ	.
8A-'\ 8d-'\ 8f'\J	24eee-\LL	.
.	24ddd-\	.
.	24bb-\JJ	.
=21	=21	=21
8AA-'/	24aa-\LL	p
.	24bb-\	.
.	24aa-\JJ	.
*clefG2	*	*
8cn/ 8g-/ 8a-/L	24ee-\LL	.
.	24eee-\	.
.	24ee-\JJ	.
8d-^/ 8f^/ (8b-^/	24dd-\LL	.
.	24ee-\	.
.	24dd-\JJ	.
8A-/ 8f/ 8a-/J)	24a-\LL	.
.	24aa-\	.
.	24a-\JJ	.
=22	=22	=22
8cn^/ 8g-^/ (8b-^/L	24aa-\LL	.
.	24bb-\	.
.	24aa-\JJ	.
8A-/ 8g-/ 8a-/J)	24ee-\LL	.
.	24eee-\	.
.	24ee-\JJ	.
8d-/ (8f/L	24dd-\LL	.
.	24ee-\	.
.	24dd-\J	.
8A-/J)	[8a-^\J	.
*clefF4	*	*
=23	=23	=23
8Cn'\L	24a-\LL]	.
.	(24aa-\	.
.	24gg-\JJ	.
8A-'\ 8e-'\ 8g-'\J	24aa-\LL	.
.	24gg-\	<
.	24aa-\JJ	.
8r	24eee-'\LL)	.
.	(24aa-\	.
.	24gg-\JJ	.
8CCn/	24aa-\LL	.
.	24gg-\	.
.	24aa-\JJ	.
=24	=24	=24
&(8Cn'\L&)	24a-\LL)	.
.	(24aa-\	.
.	24gg-\JJ	.
8A-'\ 8e-'\ 8g-'\J	24aa-\LL	.
.	24gg-\	.
.	24aa-\JJ	.
8r	24eee-'\LL)	.
.	(24aa-\	.
.	24gg-\JJ	.
8CCn/ 8Cn/	24aa-\LL	.
.	24gg-\	.
.	24aa-\JJ	.
=25	=25	=25
&(8DD-'/&) 8D-'/	24b-\LL)	.
.	(24bb-\	.
.	24gg-\JJ	.
8B-'\ 8d-'\ 8g-'\	24bb-\LL	.
.	24gg-\	.
.	24bb-\JJ	.
8CCn/ 8Cn/L	24ggg-'\LL)	.
.	(24bb-\	.
.	24gg-\JJ	.
8DD-/ 8D-/J	24bb-\LL	.
.	24gg-\	.
.	24bb-\JJ	.
=26	=26	=26
&(8DDn'/&) 8Dn'/	24b-\LL)	.
.	(24bb-\	.
.	24gg-\JJ	.
8B-'\ 8g-'\	24bb-\LL	.
.	24gg-\	.
.	24bb-\JJ	.
8CC#/ 8C#/L	24ggg-'\LL)	.
.	(24bb-\	.
.	24gg-\JJ	.
8DD/ 8D/J	24bb-\LL	.
.	24gg-\	.
.	24bb-\JJ	.
=27	=27	=27
&(8EE-'/&) 8E-'/	24g-\LL)	.
.	(24b-\	.
.	24g-\JJ	.
4B-^\ 4g-^\	24bb-'\LL	.
.	24b-\	.
.	24g-\JJ	.
.	24aa-'\LL	.
.	24b-\	.
.	24g-\JJ	.
(8EE-/ 8E-/	24gg-'\LL	.
.	24b-\)	.
.	24g-\JJ	.
=28	=28	=28
8FF-'/) 8F-'/	24dd-'\LL	.
.	24b-\	.
.	24g-\JJ	.
4B-^\ 4g-^\	24bb-'\LL	.
.	24b-\	.
.	24g-\JJ	.
.	24aa-'\LL	.
.	24b-\	.
.	24g-\JJ	.
(8EEn/ 8En/	24gg-'\LL	.
.	&(24b-\&)	.
.	24g-\JJ	.
=29	=29	=29
8FF'/) 8F'/	24d-/LL	.
.	24dd-/	.
.	24b-/JJ	.
8B-'\ 8d-'\ 8f'\	24dd-\LL	.
.	24dd-\	.
.	24ddd-\JJ	.
(8EEn/ 8En/L	&(24bb-\LL&)	.
.	24ddd-\	.
.	24dd-\JJ	.
8FF/ 8F/J	24dd-\LL	.
.	24b-\	.
.	24dd-\JJ	.
=30	=30	=30
8GG-'/) 8G-'/	&(24d-/LL&)	.
.	24dd-/	.
.	24b-/JJ	.
8B-'\ 8d-'\ 8f-'\	24dd-\LL	.
.	24dd-\	.
.	24ddd-\JJ	.
(8FFn/ 8Fn/L	&(24bb-\LL&)	.
.	24ddd-\	.
.	24dd-\JJ	.
8GG-/ 8G-/J	24dd-\LL	.
.	24b-\	.
.	24dd-\JJ	.
=31	=31	=31
8GGn'\) 8Gn'\L	&(24d-/LL&)	.
.	24dd-/	.
.	24b-/JJ	.
8G\ 8d-\ 8f-\J	24dd-\LL	.
.	24dd-\	.
.	24ddd-\JJ	.
8AA-'\ 8A-'\L	&(24aa-\LL&)	.
.	24ddd-\	.
.	24dd-\JJ	.
8A-\ 8d-\ 8f-\J	24dd-\LL	.
.	24a-\	.
.	24dd-\JJ	.
=32	=32	=32
8BB--'\ 8B--'\L	&(24dd-\LL&)	.
.	(24ddd-\	.
.	24gg-\JJ	.
8B--\ 8e-\ 8g-\J	24ddd-\LL	.
.	24dd-\	.
.	24dd-\JJ	.
8r	24g-/LL)	.
.	(24dd-/	.
.	24d-/JJ	.
8BBB--^/ 8BB--^/	24d-/LL	.
.	24G-/	.
.	24d-/JJ)	.
=33	=33	=33
*^	*	*
24E-/LL	2AAA-\ 2AA-\	8r	.
24G-/	.	.	.
24d-/JJ	.	.	.
8r	.	(24e-/LL	f
.	.	24G-/	.
.	.	24d-/JJ	.
8r	.	24e-/LL	.
.	.	24g-/	.
.	.	24d-/JJ	.
8r	.	24e-/LL	.
.	.	24g-/	.
.	.	24dd-/JJ	.
*v	*v	*	*
=34	=34	=34
4r	24e-/LL	.
.	24g-/	.
.	24dd-/JJ	.
.	24ee-\LL	.
.	24g-\	.
.	24dd-\JJ	.
8.A-\ 8.d-\ 8.g-\L	24ee-\LL	.
.	24gg-\	.
.	24dd-\JJ	.
.	24ee-\LL	.
.	24ddd-\	.
16A-\ 16d-\ 16g-\Jk	.	.
.	24gg-\JJ	.
=35	=35	=35
2A-\ 2d-\ 2g-\	24ee-\LL	f
.	24gg-\	>
.	24eee-\JJ	.
.	24ddd-\LL	.
.	24gg-\	.
.	24ee-\JJ	.
.	24ddd-\LL	.
.	24gg-\	.
.	24ee-\JJ	.
.	24dd-\LL	.
.	24gg-\	.
.	24ee-\JJ	.
=36	=36	=36
2r	24dd-\LL	.
.	24g-\	.
.	24ee-\JJ	.
.	24dd-/LL	.
.	24g-/	.
.	24e-/JJ	.
.	24dd-/LL	.
.	24g-/	.
.	24e-/JJ	.
.	24d-/LL	.
.	24g-/	.
.	24e-/JJ)	.
=37	=37	=37
2AAA-/ 2AA-/	(24A-/LL	<
.	24e-/	.
.	24g-/JJ	.
.	24a-/LL	.
.	24e-/	.
.	24g-/JJ	.
.	24a-\LL	.
.	24ee-\	.
.	24g-\JJ	.
.	24a-\LL	.
.	24ee-\	.
.	24gg-\JJ	.
=38	=38	=38
4r	24a-\LL	.
.	24ee-\	.
.	24gg-\JJ	.
.	24aa-\LL	.
.	24ee-\	.
.	24gg-\JJ	.
8.A-\ 8.cn\ 8.g-\ 8.a-\L	24aa-\LL	.
.	24eee-\	.
.	24gg-\JJ	.
.	24aa-\LL	.
.	24ggg-\	.
16A-\ 16c\ 16g-\ 16a-\Jk	.	.
.	24eee-\JJ	.
=39	=39	=39
2A-\ 2cn\ 2g-\ 2a-\	24aa-\LL	.
.	24gg-\	>
.	24eee-\JJ	.
.	24aa-\LL	.
.	24gg-\	.
.	24ee-\JJ	.
.	24aa-\LL	.
.	24gg-\	.
.	24ee-\JJ	.
.	24a-\LL	.
.	24gg-\	.
.	24ee-\JJ	.
=40	=40	=40
2r	24a-\LL	.
.	24g-\	.
.	24ee-\JJ	.
.	24a-/LL	.
.	24g-/	.
.	24e-/JJ	.
.	24a-/LL	.
.	24g-/	.
.	24e-/JJ	.
.	24A-/LL	.
.	24g-/	.
.	24e-/JJ)	.
=41	=41	=41
8DD-/	(24d-/LL	p
.	24dd-/	.
.	24a-/JJ	.
8r	24dd-\LL	.
.	24a-\	.
.	24aa-\JJ	.
[4A-\ [4f\	24dd-\LL	.
.	24aa-\	.
.	24a-\JJ	.
.	24dd-\LL	.
.	24a-\	.
.	24dd-\JJ	.
=42	=42	=42
4A-\] 4f\]	24d-/LL	.
.	24dd-/	.
.	24a-/JJ	.
.	24dd-\LL	.
.	24a-\	.
.	24aa-\JJ	.
8.Gn\ 8.en\L	24dd-\LL	.
.	24aa-\	.
.	24a-\JJ	.
.	24dd-\LL	.
.	24a-\	.
16A-\ &(16f\Jk&)	.	.
.	24dd-\JJ)	.
=43	=43	=43
8D-'\	24d-/LL	.
.	24dd-/	.
.	24a-/JJ	.
8r	24dd-\LL	.
.	24dd-\	<
.	24ddd-\JJ	.
[4A-\ ([4f\	24aa-\LL	.
.	24ddd-\	.
.	24dd-\JJ	.
.	24dd-\LL	.
.	24a-\	.
.	24dd-\JJ	.
=44	=44	=44
4A-\] 4f\]	24a-\LL	.
.	24aa-\	.
.	24dd-\JJ	.
.	24aa-\LL	.
.	24aa-\	.
.	24aaa-\JJ	.
8.Gn\ 8.en\L	24ddd-\LL	.
.	24aaa-\	.
.	24aa-\JJ	.
.	24aa-\LL	.
.	24dd-\	.
16A-\ 16f\Jk)	.	.
.	24aa-\JJ	.
=45	=45	=45
8D-'\	24dd-\LL	.
.	24ee-\	.
.	24dd-\JJ	.
*clefG2	*	*
(8A-/ 8d-/ 8f/L	24ee-\LL	<
.	24dd-\	.
.	24eee-\JJ	.
8B--/ 8d-/ 8g-/	24ddd-\LL	.
.	24eee-\	.
.	24ddd-\JJ	.
8B-/ 8d-/ 8gn/J	24dd-\LL	.
.	24ee-\	.
.	24dd-\JJ	.
=46	=46	=46
4c-/ 4d-/ 4a-/	24dd-\LL	>
.	24ee-\	.
.	24dd-\JJ	.
.	24ee-\LL	.
.	24dd-\	.
.	24eee-\JJ	.
8B-/ 8d-/ 8gn/L	24ddd-\LL	.
.	24eee-\	.
.	24ddd-\JJ	.
8B--/ 8d-/ 8g-/J	24dd-\LL	.
.	24ee-\	.
.	24dd-\JJ	.
=47	=47	=47
*^	*	*
4r	8A-'/) 8d-'/ 8f'/	24ddd-\LL	.
.	.	24eee-\	.
.	.	24ddd-\JJ	.
*clefF4	*clefF4	*	*
.	8D-'\	24dd-\LL	.
.	.	24ee-\	.
.	.	24dd-\JJ	.
*v	*v	*	*
*clefG2	*	*
*^	*	*
(8a-/L	4c-\ 4d-\ 4f\	24ddd-\LL	<
.	.	24eee-\	.
.	.	24ddd-\JJ	.
8b-/J	.	24dd-\LL	.
.	.	24ee-\	.
.	.	24dd-\JJ	.
=48	=48	=48	=48
4cc-/	2c-\ 2d-\ 2f\	24ddd-\LL	>
.	.	24eee-\	.
.	.	24ddd-\JJ	.
.	.	24dd-\LL	.
.	.	24ee-\	.
.	.	24dd-\JJ	.
8b-/L	.	24ddd-\LL	.
.	.	24eee-\	.
.	.	24ddd-\JJ	.
8a-/J)	.	24dd-\LL	.
.	.	24ee-\	.
.	.	24dd-\JJ	.
*v	*v	*	*
=49	=49	=49
8G-'/ 8B-'/ 8d-'/ 8g-'/L	24gg-\LL	f
.	24bb-\	.
.	24dd-\JJ	.
8G-'/ 8c-'/ 8e-'/ 8g-'/	24gg-\LL	.
.	24ee-\	.
.	24gg-\JJ	.
8G-'/ 8B-'/ 8d-'/ 8g-'/J	24dd-\LL	.
.	24gg-\	.
.	24b-\JJ	.
8r	24ddd-\LL	.
.	24gg-\	.
.	24bb-\JJ	.
*clefF4	*	*
=50	=50	=50
8GG-'/ 8G-'/	24gg-\LL	p
.	24bb-\	.
.	24dd-\JJ	.
8c-'\ 8e-'\ 8g-'\L	24gg-\LL	.
.	24ee-\	.
.	24gg-\JJ	.
8B-'\ 8d-'\ 8g-'\J	24dd-\LL	.
.	24gg-\	.
.	24b-\JJ	.
8r	24dd-\LL	.
.	24g-\	.
.	24b-\JJ	.
=51	=51	=51
8DD-'/ 8D-'/	24d-\LL	.
.	24dd-\	.
.	24a-\JJ	.
8A-\ 8d-\ 8f\L	24dd-\LL	.
.	24a-\	.
.	24aa-\JJ	.
8A-'\ 8c-'\ 8e-'\J	24a-\LL	.
.	24aa-\	.
.	24ee-\JJ	<
8AA-'/	24aa-\LL	.
.	24ee-\	.
.	24eee-\JJ	.
=52	=52	=52
*^	*	*
8r	4.D-\	24ee-\LL	.
.	.	24eee-\	.
.	.	24aa-\JJ	.
8A-'^/ 8c-'^/ 8e-'^/L	.	24ee-\LL	.
.	.	24a-\	.
.	.	24aa-\JJ	.
8A-'/ 8c-'/ 8d-'/J	.	24a-\LL	.
.	.	24aa-\	.
.	.	24ee-\JJ	.
8r	8r	24aa-\LL	.
.	.	24dd-\	.
.	.	24ddd-\JJ	.
*v	*v	*	*
=53	=53	=53
8G-'\ 8B-'\ 8d-'\ 8g-'\L	24gg-\LL	f
.	24bb-\	.
.	24dd-\JJ	.
8G-'\ 8c-'\ 8e-'\ 8g-'\	24gg-\LL	.
.	24ee-\	.
.	24gg-\JJ	.
8G-'\ 8B-'\ 8d-'\ 8g-'\J	24dd-\LL	.
.	24gg-\	.
.	24b-\JJ	.
8r	24ddd-\LL	.
.	24gg-\	.
.	24bb-\JJ	.
=54	=54	=54
8GG-'/ 8G-'/	24gg-\LL	p
.	24bb-\	.
.	24dd-\JJ	.
8c-'\ 8e-'\ 8g-'\L	24gg-\LL	.
.	24ee-\	.
.	24gg-\JJ	.
8B-'\ 8d-'\ 8g-'\J	24dd-\LL	.
.	24gg-\	.
.	24b-\JJ	.
8r	24dd-\LL	.
.	24g-\	.
.	24b-\JJ	.
=55	=55	=55
8C-'/	24e-\LL	.
.	24ee-\	.
.	24a-\JJ	.
8A-\ (8e-\L	24ee-\LL	.
.	24a-\	.
.	24aa-\JJ	.
8F\ 8B-\ 8dn\J)	24b-\LL	.
.	24bb-\	.
.	24b-\JJ	.
(8BB-/	24bb-\LL	.
.	24b-\	.
.	24bb-\JJ	.
=56	=56	=56
8C-'/)	24ee-\LL	.
.	24eee-\	.
.	24aa-\JJ	.
8A-\ (8e-\L	24ee-\LL	>
.	24a-\	.
.	24aa-\JJ	.
8F\ 8B-\ 8dn\J)	24b-\LL	.
.	24bb-^\	.
.	24b-\JJ	.
(8BB-/	24bb-\LL	.
.	24b-\	.
.	24bb-\JJ	.
=57	=57	=57
8C-'/)	24b-^\LL	.
.	24bb-\	.
.	24ee-\JJ	.
8c-'\ 8e-'\ 8a-'\	24bb-\LL	.
.	24a-\	.
.	24aa-\JJ	.
8D-'\	24a-^\LL	.
.	24aa-\	.
.	24dd-\JJ	.
8B-'\ 8d-'\ 8g-'\	24aa-\LL	.
.	24g-\	.
.	24gg-\JJ	.
=58	=58	=58
8C-'/	24d-^\LL	.
.	24dd-\	.
.	24a-\JJ	.
8c-'\ 8d-'\ 8f'\ 8a-'\	24dd-\LL	.
.	24a-\	.
.	24aa-\JJ	.
8BB-'/	24g-^\LL	.
.	24gg-\	.
.	24dd-\JJ	.
8B-'\ 8d-'\ 8g-'\ 8b-'\	24gg-\LL	.
.	24dd-\	.
.	24ddd-\JJ	.
=59	=59	=59
8C-'/	24b-\LL	.
.	24bb-\	.
.	24ee-\JJ	.
8c-'\ 8e-'\ 8a-'\	24bb-\LL	.
.	24a-\	.
.	24aa-\JJ	.
8D-'\	24a-^\LL	.
.	24aa-\	.
.	24dd-\JJ	.
8B-'\ 8d-'\ 8g-'\	24aa-\LL	.
.	24g-\	.
.	24gg-\JJ	.
=60	=60	=60
8C-'/	24d-^\LL	.
.	24dd-\	.
.	24a-\JJ	.
8c-'\ 8d-'\ 8f'\ 8a-'\	24dd-\LL	.
.	24a-\	.
.	24aa-\JJ	.
8BB-'/	24g-\LL	.
.	24gg-\	.
.	24dd-\JJ	.
8B-\ 8d-\ 8g-\ 8b-\	24gg-\LL	.
.	24dd-\	.
.	24ddd-\JJ	.
=61	=61	=61
8C-'/	24b-^\LL	.
.	24bb-\	.
.	24ee-\JJ	.
4A-^\ 4e-^\ 4a-^\	24bb-\LL	.
.	24a-\	.
.	24aa-\JJ	.
.	24b-^\LL	.
.	24bb-\	.
.	24ee-\JJ	.
(8C-/	24bb-\LL	.
.	24a-\	.
.	24aa-\JJ	.
=62	=62	=62
8Cn'/)	24b-\LL	.
.	24bb-\	.
.	24ee-\JJ	.
4A-^\ 4e-^\ 4g-^\ 4a-^\	24bb-\LL	.
.	24a-\	.
.	24aa-\JJ	.
.	24b-\LL	.
.	24bb-\	.
.	24ee-\JJ	.
(8C/	24bb-\LL	.
.	24a-\	.
.	24aa-\JJ	.
=63	=63	=63
4D-'\)	24dd-\LL	f
.	24bb-\	.
.	24a-\JJ	.
.	24aa-\LL	.
.	24dd-\	.
.	24bb-\JJ	.
*clefG2	*	*
4A-/ 4d-/ 4g-/ 4a-/	24a-\LL	.
.	24aa-\	.
.	24dd-\JJ	.
.	24bb-\LL	.
.	24a-\	.
.	24aa-\JJ	.
=64	=64	=64
4g-\ 4a-\ 4dd-\	24dd-\LL	.
.	24bb-\	>
.	24a-\JJ	.
.	24aa-\LL	.
.	24dd-\	.
.	24bb-\JJ	.
4r	24a-\LL	.
.	24aa-\	.
.	24dd-\JJ	.
.	24bb-\LL	.
.	24a-\	.
.	24aa-\JJ	.
*clefF4	*	*
=65	=65	=65
2D-\ 2A-\ 2d-\ 2g-\	&(24eee-\LL&)	pp
.	48r	.
.	(48ddd-\k	.
.	24bb-\JJ	.
.	24aa-\LL	.
.	24gg-\	.
.	24ee-\JJ	.
.	24ddd-\LL	.
.	24bb-\	.
.	24aa-\JJ	.
.	24gg-\LL	.
.	24ee-\	.
.	24dd-\JJ	.
=66	=66	=66
*^	*^	*
4e-/	2D-\ 2A-\ 2c-\	4a-/	4g-\	.
4d-/	.	8.b-/L	4f\	.
.	.	16a-/Jk	.	.
*	*	*v	*v	*
=67	=67	=67	=67
8B-/ 8g-/L	2G-\	&(8g-/&))	p
8d-/	.	8r	.
8c-/ 8a-/	.	24aa-\LL	.
.	.	24bb-\	.
.	.	24aa-\JJ	.
8A-/ 8f/J	.	24dd-\LL	.
.	.	24ddd-\	.
.	.	24dd-\JJ	.
=68	=68	=68	=68
8B-/ 8g-/L	2G-\	24dd-\LL	.
.	.	24ee-\	.
.	.	24dd-\JJ	.
8d-/	.	24g-\LL	.
.	.	24gg-\	.
.	.	24g-\JJ	.
8c-/ 8a-/	.	24aa-\LL	.
.	.	24bb-\	.
.	.	24aa-\J	.
8A-/ 8f/J	.	[8dd-\J	.
*v	*v	*	*
=69	=69	=69
8G-\ 8B-\ 8g-\	24dd-\LL]	.
.	24gg-\	.
.	24aa-\JJ	.
8r	24bb-\LL	.
.	24aa-\	.
.	24gg-\JJ	<
8F^\ 8c-^\ (8e-^\L	24dd-\LL	.
.	24aa-\	.
.	24ddd-\JJ	.
8D-\ 8d-\J)	24eee-\LL	.
.	24ddd-\	.
.	24aa-\JJ	.
=70	=70	=70
8G-^\ 8B-^\ (8e-^\L	24g-\LL	.
.	24dd-\	.
.	(24gg-\JJ	.
8D-\ 8d-\J)	24aa-\LL	.
.	24gg-\)	.
.	24ee-\JJ	.
8F^\ 8c-^\ (8e-^\L	24dd-\LL	.
.	24aa-\	.
.	24ddd-\JJ	.
8D-\ 8d-\J)	24eee-\LL	.
.	24ddd-\	.
.	24aa-\JJ	.
=71	=71	=71
*^	*	*
8B-/ 8g-/L	2G-\	24gg-\LL	p
.	.	24aa-\	.
.	.	24gg-\JJ	.
8d-/	.	24dd-\LL	.
.	.	24ddd-\	.
.	.	24dd-\JJ	.
8c-/ 8a-/	.	24dd-\LL	.
.	.	24ee-\	.
.	.	24dd-\JJ	.
8A-/ 8f/J	.	24a-\LL	.
.	.	24aa-\	.
.	.	24a-\JJ	.
=72	=72	=72	=72
8B-/ 8g-/L	2G-\	24aa-\LL	.
.	.	24bb-\	.
.	.	24aa-\JJ	.
8d-/	.	24gg-\LL	.
.	.	24ggg-\	.
.	.	24gg-\JJ	.
8c-/ 8a-/	.	[4dd-^\	.
8A-/ 8f/J	.	.	.
*v	*v	*	*
=73	=73	=73
8G-\ 8B-\ 8g-\L	24dd-\LL]	.
.	24gg-\	.
.	24aa-\JJ	.
(8d-\J	24bb-\LL	.
.	24aa-\	.
.	24gg-\JJ	.
8F^\ 8c-^\ 8e-^\L	24dd-\LL	.
.	24aa-\	.
.	24ddd-\JJ	.
8D-\ 8d-\J)	24eee-\LL	.
.	24ddd-\	.
.	24aa-\JJ	.
=74	=74	=74
8G-^\ 8B-^\ (8e-^\L	24g-\LL	.
.	24dd-\	.
.	24gg-\JJ	.
8D-\ 8d-\J)	24aa-\LL	.
.	24gg-\	.
.	24dd-\JJ	.
8F^\ 8c-^\ (8e-^\L	24a-\LL	.
.	24dd-\	.
.	24aa-\JJ	.
8D-\ 8d-\J)	24bb-\LL	.
.	24aa-\	.
.	24dd-\JJ	.
=75	=75	=75
4G-\ 4d-\ 4b-\	24bb-\LL	f
.	24dd-\	.
.	24aa-\JJ	.
.	24b-\LL	.
.	24aa-\	.
.	24dd-\JJ	.
8r	24gg-\LL	.
.	24b-\	.
.	24ee-\JJ	.
8D-^\ 8A-^\ 8c-^\ (8f^\	24aa-\LL	.
.	24ddd-\	.
.	24dd-\JJ	.
=76	=76	=76
4G-\ 4B-\ 4g-\)	24bb-\LL	.
.	24dd-\	.
.	24aa-\JJ	.
.	24b-\LL	.
.	24aa-\	.
.	24dd-\JJ	.
8r	24gg-\LL	.
.	24b-\	.
.	24ee-\JJ	.
8DD-^/ 8C-^/ (8F^/	24a-\LL	.
.	24dd-\	.
.	24d-\JJ	.
=77	=77	=77
*^	*	*
4GG-/ 4BB-/ 4G-/)	4r	24b-/LL	.
.	.	24d-/	.
.	.	24a-/JJ	.
.	.	24B-/LL	.
.	.	24a-/	.
.	.	24d-/JJ	.
8r	8r	24g-/LL	.
.	.	24B-/	.
.	.	24e-/JJ	.
24A-/LL	(8DD-\	8r	.
24d-/	.	.	.
24D-/JJ	.	.	.
=78	=78	=78	=78
24B-/LL	8GGG-\ 8GG-\L)	2r	.
24G-/	.	.	.
24e-/JJ	.	.	.
24D-/LL	(8DD-\	.	.
24d-/	.	.	.
24A-/JJ	.	.	.
24B-/LL	8GGG-\ 8GG-\)	.	.
24G-/	.	.	.
24e-/JJ	.	.	.
24D-/LL	(8DD-\J	.	.
24d-/	.	.	.
24A-/JJ	.	.	.
=79	=79	=79	=79
8B-/	8GGG-\ 8GG-\)	4r	.
(24B-^/ 24d-^/LL	8r	.	.
24A-/	.	.	.
24G-/JJ)	.	.	.
8r	8r	24e-^/ 24g-^/LL	ff
.	.	24d-/	.
.	.	&(24B-/JJ&)	.
8r	24GG-\LL	24g-^/ 24b-^/LL	.
.	(24D-\	24e-/	.
.	24B-\JJ)	&(24d-/JJ&)	.
*v	*v	*	*
=80	=80	=80
24GG-\LL	24b-^\ 24dd-^\LL	.
(24D-\	24a-\	.
24B-\JJ)	24g-\JJ	.
(24BB-\LL	24ee-^\ (24gg-^\LL	.
24G-\	24dd-\	.
24d-\JJ)	24b-\JJ)	.
(24D-\LL	24gg-^\ (24bb-^\LL	.
24B-\	24ee-\	.
24g-\JJ)	24dd-\JJ)	.
*clefG2	*	*
(24G-/LL	24bb-^\ (24ddd-^\LL	.
24d-/	24aa-\	.
24b-/JJ)	24gg-\JJ)	.
=81	=81	=81
(24B-/LL	24ee-\ (24gg-\LL	.
24g-/	24dd-\	.
24dd-/JJ)	24b-\JJ)	.
24d-\LL	24gg-\ (24bb-\LL	.
24b-\	24ee-\	.
24gg-\JJ	24dd-\JJ)	.
(24g-\LL	24ee-\ (24gg-\LL	.
24b-\	24dd-\	.
24gg-\JJ)	24b-\JJ)	.
24d-\LL	24gg-\ (24bb-\LL	.
24b-\	24ee-\	.
24gg-\JJ	24dd-\JJ)	.
=82	=82	=82
(24g-\LL	24ee-\ (24gg-\LL	.
24b-\	24dd-\	.
24gg-\JJ)	24b-\JJ)	.
24d-\LL	24gg-\ (24bb-\LL	.
24b-\	24ee-\	.
24gg-\JJ	24dd-\JJ)	.
24g-\LL	24ee-\ (24gg-\LL	.
(24b-\	24dd-\	.
24gg-\JJ)	24b-\JJ)	.
24d-\LL	24gg-\ (24bb-\LL	.
24b-\	24ee-\	.
24gg-\JJ	24dd-\JJ)	.
=83	=83	=83
24g-'/	24b-'\ 24gg-'\	.
24r	24r	.
*clefF4	*	*
24G-\ 24g-\	24gg-'\ 24ggg-'\	fff
24E-'\ 24e-'\LL	24ee-'\ 24eee-'\LL	.
24D-'\ 24d-'\	24dd-'\ 24ddd-'\	.
24BB-'\ 24B-'\JJ	24b-'\ 24bb-'\JJ	.
24AA-'/ 24A-'/LL	24a-'\ 24aa-'\LL	.
24GG-'/ 24G-'/	24g-'\ 24gg-'\	.
24EE-'/ 24E-'/JJ	24e-'\ 24ee-'\JJ	.
24DD-'/ 24D-'/LL	24d-'/ 24dd-'/LL	.
24BBB-'/ 24BB-'/	24B-'/ 24b-'/	.
24AAA-'/ 24AA-'/JJ	24A-'/ 24a-'/JJ	.
=84	=84	=84
8GGG-'/ 8GG-'/	8G-'/ 8g-'/	.
8r	8r	.
*clefG2	*	*
4G-/ 4d-/ 4b-/	4b-\ 4dd-\ 4gg-\ 4bb-\	.
*clefF4	*	*
=85	=85	=85
*^	*	*
2G-;/	2GGG-;\ 2GG-;\	2r	.
*v	*v	*	*
==	==	==
*-	*-	*-
!!!ENC: Craig Stuart Sapp
!!!END: 2005/01/08/
